X:1
T:O Happy Day
T:Text: Philip Doddridge (1702-1751); ref. Wesleyan Sacred Harp, 1854 Tune: Attr. Edward F. Rimbault (1816-1876)
T:LM Refrain HAPPY DAY www.hymnary.org/text/o_happy_day_that_fixed_my_choice
T:O Happy Day
T:This hymn is in the public domain.  You may freely use this score for personal and congregational worship.  If you reproduce the score, please credit Hymnary.org as the source. 
T:This hymn is in the public domain.  You may freely use this score for personal and congregational worship.  If you reproduce the score, please credit Hymnary.org as the source. 
Z:This hymn is in the public domain.  You may freely use this score for personal and congregational worship.  If you reproduce the score, please credit Hymnary.org as the source.
%%score ( 1 2 ) ( 3 4 )
L:1/8
M:3/2
K:F
V:1 treble nm="Piano" snm="Pno."
V:2 treble 
V:3 bass nm="Piano" snm="Pno."
V:4 bass 
V:1
 C2 [CF]2 [CG]2 | [CA]6 C2 [CF]2 [CG]2 | [CA]6 [FA]2 [FB]2 [FA]2 | [EG]6 F2 [FA]2 [EG]2 | F6 | %5
w: 3~'Tis done—- the|great tran- sac- tion's|done; I am the|Lord's, and he is|mine;|
w: 1~O hap- py|day that fixed my|choice on thee, my|Sa- vior and my|God!|
w: 2~O hap- py|bond, that seals my|vows to him who|me- rits all my|love!|
 C2 [CF]2 [CG]2 | [CA]6 C2 [CF]2 [CG]2 | [CA]6 [FA]2 [FB]2 [FA]2 | [EG]6 F2 [FA]2 [EG]2 | F6 z2 || %10
w: he drew me,|and I fol- lowed|on, charmed to con-|fess the voice di-|vine.|
w: Well may this|glo- wing heart re-|joice, and tell its|rap- tures all a-|broad.|
w: Let cheer- ful|an- thems fill his|house, while to that|sa- cred shrine I|move.|
"^Refrain" [FA]3 [FB] | [Fc]8 F3 [EG] | [FA]6 [FA]2 [FB]2 [FA]2 | [EG]6 F2 [FA]2 [EG]2 | F6 | %15
w: Hap- py|day, hap- py|day, when Je- sus|washed my sins a-|way!|
w: |||||
w: |||||
 [Fc]2 [Fc]2 [Fc]2 | [Fc]6 [Fc]2 [Fd]2 [Fc]2 | [FA]6 [Fc]2 [Fc]2 [Fc]2 | [Fc]6 [Fc]2 [Fd]2 [Fc]2 | %19
w: He taught me|how to watch and|pray, and live re-|joic- ing ev- ery|
w: ||||
w: ||||
 [FA]6 z2 | [FA]3 [FB] | [Fc]8 F3 [EG] | [FA]6 [FA]2 [FB]2 [FA]2 | [EG]6 F2 [FA]2 [EG]2 | F6 |] %25
w: day|hap- py|day, hap- py|day, when Je- sus|washed my sins a-|way!|
w: ||||||
w: ||||||
V:2
 C2 x4 | x6 C2 x4 | x12 | x6 F2 x4 | F6 | C2 x4 | x6 C2 x4 | x12 | x6 F2 x4 | F6 x2 || x4 | %11
 x8 F3 x | x12 | x6 F2 x4 | F6 | x6 | x12 | x12 | x12 | x8 | x4 | x8 F3 x | x12 | x6 F2 x4 | F6 |] %25
V:3
 C,2 [A,,F,]2 [C,E,]2 | F,6 [C,E,]2 [A,,F,]2 [C,E,]2 | F,6 [F,C]2 [F,D]2 [F,C]2 | %3
 [C,B,]6 [D,A,]2 [C,C]2 [C,B,]2 | [F,,A,]6 | C,2 [A,,F,]2 [C,E,]2 | F,6 [C,E,]2 [A,,F,]2 [C,E,]2 | %7
 F,6 [F,C]2 [F,D]2 [F,C]2 | [C,B,]6 [D,A,]2 [C,C]2 [C,B,]2 | [F,,A,]6 z2 || F,3 G, | %11
 [F,A,]8 [F,A,]3 [C,C] | [F,C]6 [F,C]2 [F,D]2 [F,C]2 | [C,B,]6 [D,A,]2 [C,C]2 [C,B,]2 | [F,,A,]6 | %15
 [F,A,]2 [F,A,]2 [F,A,]2 | [F,A,]6 [F,A,]2 [F,B,]2 [F,A,]2 | [F,C]6 [F,A,]2 [F,A,]2 [F,A,]2 | %18
 [F,A,]6 [F,A,]2 [F,B,]2 [F,A,]2 | [F,C]6 z2 | F,3 G, | [F,A,]8 [F,A,]3 [C,C] | %22
 [F,C]6 [F,C]2 [F,D]2 [F,C]2 | [C,B,]6 [D,A,]2 [C,C]2 [C,B,]2 | [F,,A,]6 |] %25
V:4
 C,2 x4 | F,6 x6 | F,6 x6 | x12 | x6 | C,2 x4 | F,6 x6 | F,6 x6 | x12 | x8 || F,3 F, | x12 | x12 | %13
 x12 | x6 | x6 | x12 | x12 | x12 | x8 | F,3 F, | x12 | x12 | x12 | x6 |] %25

